vendor/shopware/storefront/Resources/app/storefront/dist/assets/icon/default/traffic-pawn.svg

<svg xmlns="http://www.w3.org/2000/svg" width="24" height="24" viewBox="0 0 24 24">
  <path fill="#758CA3" fill-rule="evenodd" d="M6.46922359,12 L8.65112531,3.27239312 C8.98500056,1.93689212 10.1849499,1 11.5615528,1 L12.4384472,1 C13.8150501,1 15.0149994,1.93689212 15.3488747,3.27239312 L17.5307764,12 L20.1978284,12 C21.1352257,12 21.9468525,12.651064 22.1502025,13.5661391 L23.7057581,20.5661391 C23.7374136,20.7085889 23.7533839,20.8540753 23.7533839,21 C23.7533839,22.1045695 22.8579534,23 21.7533839,23 L2.24661605,23 C2.10069136,23 1.95520493,22.9840296 1.81275514,22.9523741 C0.734488683,22.7127594 0.0546271632,21.6444055 0.29424193,20.5661391 L1.84979749,13.5661391 C2.05314751,12.651064 2.86477431,12 3.80217161,12 L6.46922359,12 Z M15.9692236,14 L14.9692236,10 L9.03077641,10 L8.03077641,14 L15.9692236,14 Z M5.96922359,14 L3.80217161,14 L2.24661605,21 L21.7533839,21 L20.1978284,14 L18.0307764,14 L18.9701425,17.7574644 C19.1040912,18.2932593 18.7783305,18.8361938 18.2425356,18.9701425 C17.7067407,19.1040912 17.1638062,18.7783305 17.0298575,18.2425356 L16.4692236,16 L7.53077641,16 L6.9701425,18.2425356 C6.83619377,18.7783305 6.29325928,19.1040912 5.75746437,18.9701425 C5.22166947,18.8361938 4.89590877,18.2932593 5.0298575,17.7574644 L5.96922359,14 Z M9.53077641,8 L14.4692236,8 L13.4085897,3.75746437 C13.2972979,3.31229737 12.8973148,3 12.4384472,3 L11.5615528,3 C11.1026852,3 10.7027021,3.31229737 10.5914103,3.75746437 L9.53077641,8 Z"/>
</svg>

<svg xmlns="http://www.w3.org/2000/svg" width="24" height="24" viewBox="0 0 24 24"><path fill="#758CA3" fill-rule="evenodd" d="m6.4692 12 2.182-8.7276C8.985 1.9369 10.1848 1 11.5615 1h.8768c1.3767 0 2.5766.9369 2.9105 2.2724L17.5308 12h2.667a2 2 0 0 1 1.9524 1.5661l1.5556 7a2 2 0 0 1 .0476.4339c0 1.1046-.8954 2-2 2H2.2466a2 2 0 0 1-.4338-.0476C.7345 22.7128.0546 21.6444.2942 20.566l1.5556-7A2 2 0 0 1 3.8022 12h2.667zm9.5 2-1-4H9.0308l-1 4h7.9384zm-10 0h-2.167l-1.5556 7h19.5068l-1.5556-7h-2.167l.9393 3.7575c.134.5358-.1918 1.0787-.7276 1.2126-.5358.134-1.0787-.1918-1.2126-.7276L16.4692 16H7.5308L6.97 18.2425c-.134.5358-.6768.8616-1.2126.7276-.5358-.134-.8616-.6768-.7276-1.2126L5.9692 14zm3.5616-6h4.9384l-1.0606-4.2425A1 1 0 0 0 12.4384 3h-.8768a1 1 0 0 0-.9702.7575L9.5308 8z"/></svg>
